X: 1
T:Fleur de Mandragore
C:Michel Bordeleau
R:reel
D:L\'unasa
Z:id:hn-reel-707
M:C|
K:A
E2AE GABc|Aeed cAAF|E2AE GA~B2|~B3d cAAF|
E2AE GABc|Aeed cAAF|E2AE GA~B2|1 ~B3d cAAF:|2 [M:3/2] ~B3d cA~A2 ABce||
[M:C|] |:a3a a2ga|bAaA gAeA|dfed cABc|defg agfe|
a3a a2ga|bAaA gAeA|dfed cABc|1 dcBc BAA2:|2 dcBc BAAF||
